assets/images/ico_vk.svg

<svg width="31" height="18" viewBox="0 0 31 18" fill="none" xmlns="http://www.w3.org/2000/svg">
<path fill-rule="evenodd" clip-rule="evenodd" d="M26.6792 11.4444C27.7064 12.4739 28.7931 13.4427 29.7152 14.5786C30.1237 15.0811 30.5088 15.6007 30.8019 16.185C31.2204 17.0183 30.8425 17.9321 30.1156 17.9816L25.6006 17.9807C24.4345 18.0797 23.5065 17.5971 22.7241 16.7791C22.0996 16.1272 21.5202 15.4309 20.9187 14.7567C20.6729 14.4801 20.4141 14.2196 20.1057 14.0146C19.4901 13.6037 18.9554 13.7296 18.6027 14.3894C18.2434 15.0607 18.1613 15.8047 18.127 16.5519C18.0779 17.6443 17.7568 17.9298 16.6886 17.9812C14.406 18.0908 12.2403 17.7355 10.2274 16.5547C8.45163 15.5132 7.07722 14.0433 5.87958 12.379C3.54742 9.1347 1.76133 5.57391 0.156506 1.91087C-0.204681 1.08591 0.059558 0.644514 0.946517 0.627395C2.42012 0.598246 3.89373 0.601948 5.36734 0.626007C5.96706 0.635723 6.36387 0.987823 6.59429 1.56849C7.39061 3.57884 8.36686 5.49156 9.5902 7.26547C9.91622 7.73787 10.249 8.20888 10.7229 8.54247C11.246 8.91077 11.6446 8.78908 11.8912 8.18991C12.0491 7.80912 12.1172 7.40197 12.1514 6.99388C12.2687 5.59612 12.2826 4.19883 12.0797 2.80662C11.9535 1.93539 11.4759 1.37277 10.6296 1.20806C10.1985 1.12431 10.2616 0.960525 10.4713 0.707901C10.8352 0.271131 11.1761 0.000925361 11.8574 0.000925361L16.9587 0C17.7627 0.161938 17.943 0.532083 18.0522 1.36306L18.0567 7.17988C18.0472 7.50144 18.214 8.45456 18.7768 8.66508C19.2277 8.81777 19.5253 8.4467 19.795 8.15382C21.0183 6.82176 21.8899 5.24958 22.6705 3.62233C23.015 2.90471 23.3121 2.16211 23.6007 1.41812C23.8154 0.867989 24.1491 0.597321 24.7542 0.606574L29.6665 0.612589C29.8113 0.612589 29.9583 0.613977 30.1016 0.639425C30.9295 0.784706 31.1563 1.15022 30.9002 1.97889C30.4971 3.28087 29.7139 4.36539 28.9482 5.45269C28.1275 6.6168 27.2523 7.74018 26.4397 8.90938C25.693 9.97817 25.7521 10.5163 26.6792 11.4444Z" fill="white"/>
</svg>

<svg width="31" height="18" fill="none" xmlns="http://www.w3.org/2000/svg"><path fill-rule="evenodd" clip-rule="evenodd" d="M26.68 11.444c1.026 1.03 2.113 1.999 3.035 3.135.409.502.794 1.022 1.087 1.606.418.833.04 1.747-.686 1.797L25.6 17.98c-1.166.099-2.095-.384-2.877-1.202-.624-.652-1.204-1.348-1.805-2.022-.246-.277-.505-.537-.813-.742-.616-.411-1.15-.285-1.503.374-.36.672-.442 1.416-.476 2.163-.05 1.092-.37 1.378-1.438 1.43-2.283.109-4.449-.247-6.462-1.427-1.775-1.042-3.15-2.512-4.347-4.176C3.547 9.135 1.76 5.574.157 1.911-.205 1.086.06.645.947.627a122.88 122.88 0 014.42-.001c.6.01.997.362 1.227.942.797 2.01 1.773 3.924 2.996 5.697.326.473.659.944 1.133 1.277.523.369.922.247 1.168-.352.158-.38.226-.788.26-1.196.118-1.398.132-2.795-.071-4.187-.127-.872-.604-1.434-1.45-1.599-.432-.084-.368-.247-.159-.5C10.835.27 11.176 0 11.857 0h5.103c.804.162.984.532 1.093 1.363l.005 5.817c-.01.321.157 1.275.72 1.485.45.153.748-.218 1.018-.511 1.223-1.332 2.095-2.904 2.875-4.532.345-.717.642-1.46.93-2.204.215-.55.55-.82 1.154-.811l4.912.006c.145 0 .292.001.436.026.828.146 1.054.511.798 1.34-.403 1.302-1.186 2.386-1.952 3.474-.82 1.164-1.696 2.287-2.508 3.456-.747 1.07-.688 1.607.24 2.535z" fill="#fff"/></svg>
